epam-assets/icon-sources/18/content-bookmark-outline.svg

<svg width="18" height="18" viewBox="0 0 18 18" fill="none" xmlns="http://www.w3.org/2000/svg">
<g id="18/content-bookmark-outline">
<path id="icon" fill-rule="evenodd" clip-rule="evenodd" d="M12.75 13.5L9 11.865L5.25 13.5V3.75H12.75V13.5ZM12.75 2.25H5.25C4.42157 2.25 3.75 2.92157 3.75 3.75V15.75L9 13.5L14.25 15.75V3.75C14.25 2.9175 13.575 2.25 12.75 2.25Z" fill="#6C6F80"/>
</g>
</svg>

<svg xmlns="http://www.w3.org/2000/svg" width="18" height="18" fill="none" viewBox="0 0 18 18">
  <path fill="#6C6F80" fill-rule="evenodd" d="M12.75 13.5 9 11.865 5.25 13.5V3.75h7.5v9.75Zm0-11.25h-7.5a1.5 1.5 0 0 0-1.5 1.5v12L9 13.5l5.25 2.25v-12a1.5 1.5 0 0 0-1.5-1.5Z" clip-rule="evenodd"/>
</svg>
